exported-svg/chevron-down.svg

<svg height="24" viewBox="0 0 24 24" width="24" xmlns="http://www.w3.org/2000/svg"><path d="m12.5 14.7928932-5.64644661-5.64644659c-.19526215-.19526215-.51184463-.19526215-.70710678 0s-.19526215.51184463 0 .70710678l5.99999999 6.00000001c.1952622.1952621.5118446.1952621.7071068 0l6-6.00000001c.1952621-.19526215.1952621-.51184463 0-.70710678-.1952622-.19526215-.5118446-.19526215-.7071068 0z"/></svg>

<?xml version="1.0" encoding="UTF-8"?>
<svg width="24px" height="24px" viewBox="0 0 24 24" version="1.1" xmlns="http://www.w3.org/2000/svg" xmlns:xlink="http://www.w3.org/1999/xlink">
    <!-- Generator: Sketch 55.2 (78181) - https://sketchapp.com -->
    <title>chevron-down</title>
    <desc>Created with Sketch.</desc>
    <g id="chevron-down" stroke="none" stroke-width="1" fill="none" fill-rule="evenodd">
        <path d="M12.5,14.7928932 L6.85355339,9.14644661 C6.65829124,8.95118446 6.34170876,8.95118446 6.14644661,9.14644661 C5.95118446,9.34170876 5.95118446,9.65829124 6.14644661,9.85355339 L12.1464466,15.8535534 C12.3417088,16.0488155 12.6582912,16.0488155 12.8535534,15.8535534 L18.8535534,9.85355339 C19.0488155,9.65829124 19.0488155,9.34170876 18.8535534,9.14644661 C18.6582912,8.95118446 18.3417088,8.95118446 18.1464466,9.14644661 L12.5,14.7928932 Z" id="Shape" fill="#000000" fill-rule="nonzero"></path>
    </g>
</svg>
